X:28
T:Bride has a Bonnie Thing THO1.028, The
M:6/8
L:1/8
Z:vmp. Peter Dunk 2012.from a transcription by Fynn Titford-Mock 2006
B:Thompson's Compleat Collection of 200 Favourite Country Dances Vol.I,1758
Q:3/8=100
K:Hp
eAA ecc|fBB Baf|eAA ecc|eAA ecc|fdd ecc|fBB Baf|eAA ecc|eAA Aaf:|
|:e3 e/g/af|e2 A ABc|e3 (e/g/af)|g2 B Bcd|\
e3 (e/g/af)|(ec)e (ae)g|(fd)f (ec)e|fBB Bcd:|

